X: 1
T: Elsey's
M: 3/4
L: 1/8
R: waltz
K: Dmaj
|:AG|F3 E F2|D2 F2 A2|B2 G2 d2|A4  g2|f3 e d2|d2 c2 d2|d2 A2 f2|e4  AG|
F3 E F2|D2 F2 A2|B2 G2 d2|A4 g2|f3 e d2|A2 B2 c2|d6  | d4  A2|
f3 g fe|d2 e2 f2|g2 B2 g2|f4  A2|f3 g fe|d2 c2 d2|d2 A2 f2|e4  AG|
F3 E FE|D2 F2 A2|B2 G2 d2|A4  g2|f3 e d2|A2 B2 c2|d6  |d4 :|
